X:1     %Music
T:The Hexhamshire Lass
B: Songs and Ballads of Northern England, Walter Scott Ltd
Z:John Stokoe
F:http://www.folkinfo.org/songs
Q:1/2=92     %Tempo
M:3/2     %Meter
L:1/8     %
K:D
d2 c d B2 G F (E2D2) |d2 c d B2 A d e2 E2 |
w:Hey for the buff and the blue_ Hey for the cap and the feath-er 
d2 c d B B (AF) E2 (FA) |B2 (Ac) d2 (AF) (E2D2) |
w:Hey for the bon-ny lass_ true That_ lives in_ Hex-ham-*shire_ 
G2 B G F2 (AF) (E2D) D |G2 B G F2 A B (=c2E2) |
w:Through by the Sai-by_ Syke_ An o-ver the moss and the mire_
G2 B G F2 (AF) E2 (FA) |B2 (Ac) d2 (AF) (E2D) z |]
w:I'll go to see my_ lass, Who_ lives in_ Hex-ham-*shire *